src/img/HomePage/Chopsticks/2LeftTop.svg

<?xml version="1.0" encoding="UTF-8"?> <svg xmlns="http://www.w3.org/2000/svg" width="236" height="160" viewBox="0 0 236 160" fill="none"> <path fill-rule="evenodd" clip-rule="evenodd" d="M125.592 157.139C121.269 152.941 127.872 142.973 142.589 131.48C158.365 119.16 189.893 102.846 208.641 97.3015C219.747 94.0159 230.592 93.5643 233.574 96.2625C238.71 100.909 233.152 109.653 217.187 122.045C184.892 147.114 134.967 166.242 125.592 157.139ZM20.2278 128.315C10.9304 123.775 6.74117 116.345 4.37878 100.201C3.72286 95.7168 2.55685 88.8426 1.78741 84.9253C-0.800994 71.7421 0.677837 66.6711 12.7468 47.3496C20.0687 35.6276 26.5155 27.8708 34.2258 21.5056C40.5623 16.2744 53.9551 7.1902 60.0909 3.96075C68.3899 -0.40728 76.2176 -0.568962 82.1792 3.50495C85.4654 5.75026 90.4332 13.6844 90.6608 17.051C90.7442 18.2835 91.5108 22.619 92.3644 26.6861C93.7546 33.3082 94.7674 44.6796 94.2517 47.8853C93.6574 51.5894 94.0855 67.6275 94.8853 71.6127C95.3996 74.1749 97.7916 80.3641 100.201 85.3673C106.985 99.4556 107.75 102.909 105.991 111.482C104.744 117.558 104.013 119.276 101.269 122.583C97.1071 127.596 90.0614 131.627 83.2211 132.909C78.3641 133.819 76.3045 133.658 62.3564 131.282C48.1306 128.858 46.2567 128.72 39.1529 129.573C30.1047 130.66 24.2323 130.269 20.2278 128.315ZM21.8268 126.06C17.2127 124.221 11.6054 117.764 9.82525 112.243C7.93022 106.364 3.44195 77.8275 3.72047 73.4267C3.84999 71.3771 5.12288 67.1854 6.57559 64.023C9.99815 56.5738 19.7441 40.997 21.8136 39.6677C22.7045 39.0955 23.2611 38.3989 23.0518 38.1195C22.3309 37.1607 26.6296 32.3422 27.9622 32.6157C28.7913 32.7858 29.3738 32.1969 29.501 31.0584C29.7316 28.9937 33.0327 25.7078 35.1418 25.4439C35.9076 25.348 36.6683 24.63 36.8317 23.8477C37.203 22.075 53.6034 10.5054 61.6132 6.36688C65.3558 4.43276 68.394 3.45211 69.7664 3.73377C70.9688 3.98055 72.0368 3.77598 72.1386 3.27991C72.4245 1.88675 79.7577 4.46485 82.0552 6.76698C87.8718 12.5943 91.498 30.0862 91.1368 50.576C90.8291 67.9915 92.0798 75.0728 97.3797 85.938C103.026 97.5161 104.544 103.055 103.824 109.464C103.325 113.906 103.025 114.619 101.761 114.36C100.093 114.017 99.2921 116.041 100.782 116.833C102.326 117.654 97.113 123.614 92.0776 126.784C84.6662 131.45 80.0456 131.741 61.9481 128.681C48.0548 126.331 45.726 126.151 39.2265 126.919C29.9277 128.02 26.2919 127.84 21.8268 126.06ZM142.983 142.175C144.956 138.29 152.328 132.66 164.722 125.574C179.171 117.312 192.143 111.901 204.137 109.134C214.01 106.856 218.514 107.209 217.898 110.212C216.804 115.542 194.842 129.573 175.194 137.493C162.003 142.81 149.698 145.842 145.123 144.903C142.097 144.282 141.985 144.14 142.983 142.175ZM15.7138 108.355C15.804 107.915 16.2846 107.639 16.7819 107.741C17.2791 107.843 17.6122 108.286 17.522 108.726C17.4318 109.165 16.9512 109.441 16.454 109.339C15.9568 109.237 15.6237 108.794 15.7138 108.355ZM23.2744 108.241C23.3646 107.802 23.8452 107.526 24.3425 107.628C24.8397 107.73 25.1727 108.173 25.0826 108.613C24.9924 109.052 24.5118 109.328 24.0146 109.226C23.5173 109.124 23.1843 108.681 23.2744 108.241ZM93.4571 122.946C92.8657 122.159 93.9382 121.079 95.0783 121.313C95.5466 121.409 95.8183 122.027 95.6831 122.686C95.4296 123.921 94.2905 124.054 93.4571 122.946ZM42.5037 106.361C42.5939 105.921 43.2779 105.687 44.0238 105.84C44.7696 105.993 45.3061 106.478 45.2159 106.917C45.1258 107.357 44.4417 107.591 43.6959 107.438C42.95 107.285 42.4135 106.8 42.5037 106.361ZM92.7558 116.929C91.9224 115.82 92.5146 114.959 93.9123 115.246C94.6582 115.399 95.1991 115.863 95.1142 116.276C94.9074 117.284 93.3472 117.715 92.7558 116.929ZM53.5167 107.788C53.6068 107.349 54.0874 107.073 54.5847 107.175C55.0819 107.277 55.415 107.72 55.3248 108.159C55.2346 108.599 54.754 108.875 54.2568 108.773C53.7595 108.671 53.4265 108.228 53.5167 107.788ZM37.899 101.253C37.9891 100.814 38.4697 100.538 38.967 100.64C39.4642 100.742 39.7973 101.185 39.7071 101.624C39.617 102.064 39.1363 102.34 38.6391 102.238C38.1418 102.135 37.8088 101.692 37.899 101.253ZM48.3714 103.657C47.538 102.549 48.1302 101.688 49.5279 101.975C50.2738 102.128 50.8147 102.591 50.7297 103.005C50.523 104.012 48.9628 104.444 48.3714 103.657ZM99.4562 108.892C99.5464 108.452 100.23 108.218 100.976 108.371C101.722 108.524 102.259 109.009 102.168 109.448C102.078 109.888 101.394 110.122 100.648 109.969C99.9025 109.816 99.366 109.331 99.4562 108.892ZM63.0579 100.701C62.7825 100.064 62.8461 99.3778 63.1985 99.1754C64.1544 98.6265 64.821 99.8588 64.1457 100.927C63.6735 101.676 63.4602 101.632 63.0579 100.701ZM69.1192 101.677C69.9819 100.31 71.9787 100.465 71.6891 101.875C71.5465 102.57 70.7859 103.008 69.9984 102.846C69.211 102.684 68.8149 102.159 69.1192 101.677ZM7.39565 87.8011C6.80428 87.0146 7.87678 85.9344 9.01683 86.1684C9.48514 86.2645 9.75693 86.8822 9.62167 87.5412C9.36822 88.7762 8.22904 88.9095 7.39565 87.8011ZM14.1285 88.5352C14.2711 87.8403 15.0317 87.4028 15.8192 87.5644C17.4158 87.8921 16.7852 89.555 15.0077 89.7047C14.3807 89.7575 13.9857 89.231 14.1285 88.5352ZM98.6237 102.362C98.0324 101.575 99.1049 100.495 100.245 100.729C100.713 100.825 100.985 101.443 100.85 102.102C100.596 103.337 99.4571 103.47 98.6237 102.362ZM57.3231 92.1747C56.4897 91.0663 57.0818 90.2055 58.4796 90.4924C59.2254 90.6454 59.7663 91.1086 59.6814 91.5224C59.4747 92.5297 57.9145 92.9612 57.3231 92.1747ZM64.0282 93.2961C64.1184 92.8567 64.8025 92.6225 65.5483 92.7756C66.2942 92.9286 66.8307 93.4134 66.7405 93.8527C66.6503 94.2921 65.9663 94.5263 65.2204 94.3732C64.4746 94.2201 63.9381 93.7354 64.0282 93.2961ZM7.80314 81.225C7.21177 80.4384 8.28427 79.3582 9.42432 79.5922C9.89263 79.6883 10.1644 80.306 10.0291 80.965C9.77568 82.2 8.63653 82.3334 7.80314 81.225ZM52.0244 82.924C52.1597 82.265 52.6772 81.8092 53.1745 81.9113C53.6717 82.0133 53.9679 82.6361 53.8326 83.2951C53.6974 83.9541 53.1799 84.4098 52.6826 84.3078C52.1854 84.2057 51.8892 83.583 52.0244 82.924ZM58.2711 84.6222C58.3612 84.1829 59.0453 83.9486 59.7911 84.1017C60.537 84.2548 61.0735 84.7395 60.9833 85.1789C60.8931 85.6182 60.2091 85.8525 59.4632 85.6994C58.7174 85.5463 58.1809 85.0616 58.2711 84.6222ZM53.336 76.5333C53.4863 75.8008 54.0204 75.4209 54.5224 75.6879C55.0244 75.955 55.3654 76.5153 55.2798 76.9323C55.1943 77.3493 54.6601 77.73 54.0935 77.7777C53.5269 77.8254 53.1857 77.2659 53.336 76.5333ZM73.4718 79.4171C73.5619 78.9778 74.0181 78.6968 74.4864 78.7929C74.9547 78.889 75.5148 79.3785 75.732 79.881C75.9492 80.3834 75.4921 80.6642 74.7173 80.5052C73.9425 80.3462 73.3816 79.8565 73.4718 79.4171ZM80.9504 79.7033C81.0856 79.0442 81.6031 78.5885 82.1004 78.6906C82.5976 78.7926 82.8938 79.4153 82.7585 80.0744C82.6233 80.7334 82.1058 81.1891 81.6085 81.087C81.1113 80.985 80.8151 80.3623 80.9504 79.7033ZM23.155 62.916C23.2976 62.2211 24.0582 61.7836 24.8457 61.9452C25.6331 62.1068 26.0293 62.6327 25.7251 63.1139C24.8623 64.481 22.8654 64.3268 23.155 62.916ZM48.0651 68.6761C47.4737 67.8895 48.5462 66.8093 49.6863 67.0433C50.1546 67.1394 50.4264 67.7571 50.2911 68.4161C50.0376 69.6511 48.8985 69.7845 48.0651 68.6761ZM88.2959 74.3895C87.4625 73.2811 88.0547 72.4203 89.4524 72.7071C90.1983 72.8602 90.7392 73.3234 90.6543 73.7371C90.4475 74.7445 88.8873 75.176 88.2959 74.3895ZM30.3169 60.1544C30.4522 59.4954 30.9697 59.0397 31.4669 59.1417C31.9642 59.2438 32.2603 59.8665 32.1251 60.5255C31.9898 61.1846 31.4723 61.6403 30.9751 61.5382C30.4778 61.4362 30.1817 60.8135 30.3169 60.1544ZM16.2615 55.1886C16.3516 54.7493 17.0357 54.515 17.7815 54.6681C18.5274 54.8212 19.0639 55.3059 18.9737 55.7452C18.8835 56.1846 18.1995 56.4188 17.4536 56.2658C16.7078 56.1127 16.1713 55.628 16.2615 55.1886ZM49.7945 61.6544C49.9448 60.9219 50.4788 60.542 50.9808 60.809C51.4829 61.076 51.8239 61.6363 51.7383 62.0533C51.6527 62.4703 51.1186 62.851 50.552 62.8988C49.9853 62.9465 49.6442 62.3869 49.7945 61.6544ZM26.8621 54.0343C26.9523 53.5949 27.6363 53.3607 28.3822 53.5138C29.1281 53.6669 29.6646 54.1516 29.5744 54.5909C29.4842 55.0303 28.8002 55.2645 28.0543 55.1114C27.3084 54.9584 26.7719 54.4737 26.8621 54.0343ZM34.0104 51.339C34.1006 50.8996 34.5812 50.6236 35.0785 50.7257C35.5757 50.8277 35.9088 51.2707 35.8186 51.7101C35.7285 52.1494 35.2478 52.4254 34.7506 52.3233C34.2534 52.2213 33.9203 51.7783 34.0104 51.339ZM59.9806 53.339C60.0708 52.8996 60.5514 52.6236 61.0486 52.7257C61.5458 52.8277 61.8789 53.2707 61.7888 53.7101C61.6986 54.1494 61.218 54.4254 60.7207 54.3233C60.2235 54.2213 59.8904 53.7783 59.9806 53.339ZM79.2122 56.0372C79.3626 55.3046 79.8966 54.9247 80.3986 55.1918C80.9006 55.4588 81.2416 56.0191 81.156 56.4361C81.0704 56.8531 80.5363 57.2338 79.9697 57.2815C79.4031 57.3293 79.0619 56.7697 79.2122 56.0372ZM54.1438 49.6436C54.234 49.2043 54.7146 48.9283 55.2118 49.0303C55.7091 49.1324 56.0422 49.5754 55.952 50.0147C55.8618 50.4541 55.3812 50.7301 54.8839 50.628C54.3867 50.526 54.0536 50.083 54.1438 49.6436ZM108.416 60.2883C107.902 59.4528 107.726 57.5786 108.025 56.1231C108.69 52.8822 110.785 51.2784 113.599 51.856C117.599 52.6769 117.839 57.7177 114.015 60.5701C111.375 62.5406 109.752 62.4589 108.416 60.2883ZM86.1146 54.5401C86.2048 54.1008 86.8888 53.8665 87.6347 54.0196C88.3806 54.1727 88.9171 54.6574 88.8269 55.0968C88.7367 55.5361 88.0527 55.7703 87.3068 55.6173C86.561 55.4642 86.0245 54.9795 86.1146 54.5401ZM58.0856 44.2091C58.236 43.4765 58.77 43.0966 59.272 43.3636C59.774 43.6307 60.1151 44.191 60.0295 44.608C59.9439 45.025 59.4097 45.4057 58.8431 45.4534C58.2765 45.5011 57.9353 44.9416 58.0856 44.2091ZM84.55 48.3916C84.6402 47.9523 85.3242 47.7181 86.0701 47.8711C86.8159 48.0242 87.3524 48.5089 87.2623 48.9483C87.1721 49.3876 86.488 49.6219 85.7422 49.4688C84.9963 49.3157 84.4598 48.831 84.55 48.3916ZM52.3309 40.1143C52.4211 39.675 52.9017 39.399 53.3989 39.501C53.8962 39.6031 54.2292 40.0461 54.139 40.4854C54.0489 40.9248 53.5683 41.2007 53.071 41.0987C52.5738 40.9966 52.2407 40.5537 52.3309 40.1143ZM55.8549 35.3107C55.2635 34.5242 56.336 33.444 57.4761 33.678C57.9444 33.7741 58.2161 34.3918 58.0809 35.0508C57.8274 36.2858 56.6883 36.4191 55.8549 35.3107ZM72.1268 21.7002C72.217 21.2608 72.6976 20.9849 73.1948 21.0869C73.6921 21.189 74.0252 21.6319 73.935 22.0713C73.8448 22.5106 73.3642 22.7866 72.8669 22.6846C72.3697 22.5825 72.0366 22.1396 72.1268 21.7002ZM70.3139 12.1709C70.4041 11.7315 71.0881 11.4973 71.834 11.6504C72.5798 11.8035 73.1163 12.2882 73.0261 12.7275C72.936 13.1669 72.252 13.4011 71.5061 13.248C70.7602 13.095 70.2237 12.6102 70.3139 12.1709ZM75.1598 6.92184C75.3101 6.18931 75.8441 5.80939 76.3461 6.07642C76.8482 6.34344 77.1892 6.90379 77.1036 7.32078C77.018 7.73776 76.4839 8.11848 75.9173 8.16619C75.3506 8.2139 75.0095 7.65437 75.1598 6.92184Z" fill="#201B19"></path> </svg>

<svg xmlns="http://www.w3.org/2000/svg" width="236" height="160" fill="none"><path fill-rule="evenodd" clip-rule="evenodd" d="M125.592 157.139c-4.323-4.198 2.28-14.166 16.997-25.659 15.776-12.32 47.304-28.634 66.052-34.178 11.106-3.286 21.951-3.738 24.933-1.04 5.136 4.647-.422 13.391-16.387 25.783-32.295 25.069-82.22 44.197-91.595 35.094ZM20.228 128.315c-9.298-4.54-13.487-11.97-15.85-28.114-.655-4.484-1.821-11.358-2.59-15.276C-.802 71.742.677 66.671 12.746 47.35c7.322-11.722 13.768-19.48 21.479-25.844C40.562 16.274 53.956 7.19 60.09 3.96 68.39-.407 76.218-.57 82.179 3.505c3.286 2.245 8.254 10.18 8.482 13.546.083 1.233.85 5.568 1.703 9.635 1.39 6.622 2.403 17.994 1.888 21.2-.595 3.703-.166 19.741.633 23.727.515 2.562 2.907 8.751 5.316 13.754 6.784 14.089 7.549 17.542 5.79 26.115-1.247 6.076-1.978 7.794-4.722 11.101-4.162 5.013-11.208 9.044-18.048 10.326-4.857.91-6.916.749-20.865-1.627-14.225-2.424-16.1-2.562-23.203-1.709-9.048 1.087-14.92.696-18.925-1.258Zm1.599-2.255c-4.614-1.839-10.222-8.296-12.002-13.817-1.895-5.879-6.383-34.415-6.105-38.816.13-2.05 1.403-6.242 2.856-9.404 3.422-7.45 13.168-23.026 15.238-24.355.89-.572 1.447-1.27 1.238-1.548-.721-.96 3.578-5.778 4.91-5.504.83.17 1.412-.42 1.539-1.558.23-2.064 3.532-5.35 5.64-5.614.767-.096 1.527-.814 1.69-1.596.372-1.773 16.772-13.343 24.782-17.481 3.743-1.934 6.781-2.915 8.153-2.633 1.203.247 2.27.042 2.373-.454.285-1.393 7.619 1.185 9.916 3.487 5.817 5.827 9.443 23.32 9.082 43.809-.308 17.416.943 24.497 6.243 35.362 5.646 11.578 7.164 17.117 6.444 23.526-.499 4.442-.799 5.155-2.063 4.896-1.668-.343-2.469 1.681-.979 2.473 1.544.821-3.669 6.781-8.704 9.951-7.412 4.666-12.032 4.957-30.13 1.897-13.893-2.35-16.222-2.53-22.721-1.762-9.3 1.101-12.935.921-17.4-.859Zm121.156 16.115c1.973-3.885 9.345-9.515 21.739-16.601 14.449-8.262 27.421-13.673 39.415-16.44 9.873-2.278 14.377-1.925 13.761 1.078-1.094 5.33-23.056 19.361-42.704 27.281-13.191 5.317-25.496 8.349-30.071 7.41-3.026-.621-3.138-.763-2.14-2.728Zm-127.27-33.82c.091-.44.572-.716 1.069-.614.497.102.83.545.74.985-.09.439-.57.715-1.068.613-.497-.102-.83-.545-.74-.984Zm7.561-.114c.09-.439.571-.715 1.069-.613.497.102.83.545.74.985-.09.439-.571.715-1.068.613-.498-.102-.83-.545-.74-.985Zm70.183 14.705c-.591-.787.481-1.867 1.621-1.633.469.096.74.714.605 1.373-.253 1.235-1.393 1.368-2.226.26Zm-50.953-16.585c.09-.44.774-.674 1.52-.521.746.153 1.282.638 1.192 1.077-.09.44-.774.674-1.52.521-.746-.153-1.282-.638-1.192-1.077Zm50.252 10.568c-.834-1.109-.241-1.97 1.156-1.683.746.153 1.287.617 1.202 1.03-.207 1.008-1.767 1.439-2.358.653Zm-39.24-9.141c.09-.439.571-.715 1.069-.613.497.102.83.545.74.984-.09.44-.571.716-1.068.614-.497-.102-.83-.545-.74-.985ZM37.9 101.253c.09-.439.57-.715 1.068-.613.497.102.83.545.74.984-.09.44-.57.716-1.068.614-.497-.103-.83-.546-.74-.985Zm10.472 2.404c-.833-1.108-.24-1.969 1.157-1.682.746.153 1.287.616 1.202 1.03-.207 1.007-1.767 1.439-2.359.652Zm51.085 5.235c.09-.44.774-.674 1.52-.521.746.153 1.283.638 1.192 1.077-.09.44-.774.674-1.52.521-.745-.153-1.282-.638-1.192-1.077Zm-36.398-8.191c-.276-.637-.212-1.323.14-1.526.956-.549 1.623.684.948 1.752-.473.749-.686.705-1.088-.226Zm6.061.976c.863-1.367 2.86-1.212 2.57.198-.142.695-.903 1.133-1.69.971-.788-.162-1.184-.687-.88-1.169ZM7.396 87.801c-.592-.786.48-1.867 1.62-1.633.47.096.74.714.606 1.373-.254 1.235-1.393 1.368-2.226.26Zm6.733.734c.142-.695.903-1.132 1.69-.97 1.597.327.966 1.99-.811 2.14-.627.052-1.022-.474-.88-1.17Zm84.495 13.827c-.592-.787.48-1.867 1.621-1.633.468.096.74.714.605 1.373-.254 1.235-1.393 1.368-2.226.26Zm-41.3-10.187c-.834-1.109-.242-1.97 1.156-1.683.745.153 1.286.617 1.201 1.03-.206 1.008-1.767 1.44-2.358.653Zm6.704 1.121c.09-.44.774-.674 1.52-.52.746.153 1.283.637 1.192 1.077-.09.44-.774.673-1.52.52-.745-.153-1.282-.638-1.192-1.077ZM7.803 81.225c-.591-.787.481-1.867 1.621-1.633.469.096.74.714.605 1.373-.253 1.235-1.392 1.368-2.226.26Zm44.221 1.699c.136-.659.653-1.115 1.15-1.013.498.102.794.725.659 1.384-.136.66-.653 1.115-1.15 1.013-.498-.102-.794-.725-.659-1.384Zm6.247 1.698c.09-.44.774-.673 1.52-.52.746.153 1.283.638 1.192 1.077-.09.44-.774.674-1.52.52-.746-.153-1.282-.637-1.192-1.077Zm-4.935-8.089c.15-.732.684-1.112 1.186-.845.502.267.843.827.758 1.244-.086.417-.62.798-1.187.846-.566.047-.907-.512-.757-1.245Zm20.136 2.884c.09-.44.546-.72 1.014-.624.469.096 1.029.585 1.246 1.088.217.502-.24.783-1.015.624-.775-.159-1.335-.648-1.245-1.088Zm7.478.286c.136-.659.653-1.115 1.15-1.012.498.102.794.724.659 1.383-.136.66-.653 1.115-1.15 1.013-.498-.102-.794-.725-.659-1.384ZM23.155 62.916c.143-.695.903-1.132 1.69-.97.788.16 1.184.687.88 1.168-.863 1.367-2.86 1.213-2.57-.198Zm24.91 5.76c-.591-.787.481-1.867 1.621-1.633.469.096.74.714.605 1.373-.253 1.235-1.392 1.368-2.226.26Zm40.23 5.713c-.832-1.108-.24-1.969 1.157-1.682.746.153 1.287.616 1.202 1.03-.206 1.008-1.767 1.439-2.358.653ZM30.318 60.154c.135-.659.653-1.114 1.15-1.012.497.102.793.724.658 1.383-.135.66-.653 1.115-1.15 1.013-.497-.102-.793-.724-.658-1.384ZM16.262 55.19c.09-.44.774-.674 1.52-.52.745.152 1.282.637 1.192 1.076-.09.44-.774.674-1.52.52-.746-.152-1.283-.637-1.192-1.076Zm33.532 6.465c.15-.732.685-1.112 1.187-.845.502.267.843.827.757 1.244-.085.417-.62.798-1.186.846-.567.047-.908-.512-.758-1.245Zm-22.932-7.62c.09-.44.774-.673 1.52-.52.746.153 1.283.638 1.192 1.077-.09.44-.774.673-1.52.52-.746-.153-1.282-.637-1.192-1.077Zm7.148-2.695c.09-.44.571-.715 1.069-.613.497.102.83.545.74.984-.09.44-.571.715-1.068.613-.498-.102-.83-.545-.74-.984Zm25.97 2c.09-.44.571-.715 1.069-.613.497.102.83.545.74.984-.09.44-.571.715-1.068.613-.497-.102-.83-.545-.74-.984Zm19.232 2.698c.15-.732.685-1.112 1.187-.845.502.267.843.827.757 1.244-.086.417-.62.798-1.186.846-.567.047-.908-.512-.758-1.245Zm-25.068-6.393c.09-.44.57-.716 1.068-.614.497.102.83.545.74.985-.09.44-.57.715-1.068.613-.497-.102-.83-.545-.74-.984Zm54.272 10.644c-.514-.835-.69-2.71-.391-4.165.665-3.24 2.76-4.845 5.574-4.267 4 .82 4.24 5.862.416 8.714-2.64 1.97-4.263 1.889-5.599-.282ZM86.115 54.54c.09-.44.774-.673 1.52-.52.746.153 1.282.637 1.192 1.077-.09.44-.774.673-1.52.52-.746-.153-1.282-.637-1.192-1.077Zm-28.03-10.33c.151-.733.685-1.113 1.187-.846s.843.827.758 1.244c-.086.417-.62.798-1.187.845-.567.048-.908-.511-.757-1.244Zm26.465 4.182c.09-.44.774-.674 1.52-.52.746.152 1.282.637 1.192 1.076-.09.44-.774.674-1.52.52-.746-.152-1.282-.637-1.192-1.076Zm-32.22-8.278c.091-.439.572-.715 1.069-.613.497.102.83.545.74.984-.09.44-.57.716-1.068.614-.497-.102-.83-.545-.74-.985Zm3.525-4.803c-.591-.787.481-1.867 1.621-1.633.468.096.74.714.605 1.373-.254 1.235-1.393 1.368-2.226.26ZM72.127 21.7c.09-.44.57-.716 1.068-.614.497.102.83.545.74.984-.09.44-.57.716-1.068.614-.497-.102-.83-.545-.74-.985Zm-1.813-9.53c.09-.44.774-.674 1.52-.52.746.152 1.282.637 1.192 1.076-.09.44-.774.674-1.52.521-.746-.153-1.282-.638-1.192-1.077Zm4.846-5.25c.15-.732.684-1.112 1.186-.845.502.267.843.828.758 1.245-.086.417-.62.797-1.187.845-.566.048-.907-.512-.757-1.244Z" fill="#201B19"/></svg>
